svgs/google_chrome_canary.svg

<svg width="192" height="192" viewBox="0 0 192 192" fill="none" xmlns="http://www.w3.org/2000/svg">
<path d="M106 122C106 113.163 113.163 106 122 106H154C162.837 106 170 113.163 170 122V154C170 162.837 162.837 170 154 170H122C113.163 170 106 162.837 106 154V122Z" stroke="black" stroke-width="12"/>
<path d="M149.607 148.607C147.509 150.704 144.836 152.133 141.926 152.712C139.017 153.291 136.001 152.994 133.26 151.858C130.519 150.723 128.176 148.8 126.528 146.334C124.88 143.867 124 140.967 124 138C124 135.033 124.88 132.133 126.528 129.666C128.176 127.2 130.519 125.277 133.26 124.142C136.001 123.006 139.017 122.709 141.926 123.288C144.836 123.867 147.509 125.296 149.607 127.393" stroke="black" stroke-width="8" stroke-linecap="round"/>
<path fill-rule="evenodd" clip-rule="evenodd" d="M96 28C75.568 28 57.2406 37.0114 44.7756 51.2765L63.9799 84.5394C68.6832 71.4004 81.2438 62 96 62H154.903C143.145 41.6748 121.17 28 96 28ZM28 96C28 83.6095 31.3139 71.993 37.1038 61.9886L66.2256 112.429C71.0936 121.232 79.7525 127.648 90 129.472V120C90 119.058 90.0434 118.127 90.1282 117.208C84.5128 115.656 79.7983 111.935 76.9442 107.002L76.9475 107L76.733 106.628C74.9914 103.478 74 99.8547 74 96C74 83.8497 83.8497 74 96 74C106.117 74 114.639 80.8287 117.208 90.1282C118.127 90.0434 119.058 90 120 90H129.472C128.398 83.966 125.732 78.4828 121.924 74H160.362C162.208 79.4023 163.394 85.111 163.821 91.0297C168.402 92.2632 172.548 94.5541 175.984 97.6245C175.995 97.0843 176 96.5428 176 96C176 51.8172 140.183 16 96 16C51.8172 16 16 51.8172 16 96C16 140.183 51.8172 176 96 176C96.5428 176 97.0843 175.995 97.6245 175.984C94.5541 172.548 92.2632 168.402 91.0297 163.821C55.7948 161.276 28 131.884 28 96Z" fill="black"/>
</svg>

<svg width="192" height="192" fill="none" xmlns="http://www.w3.org/2000/svg"><path d="M106 122c0-8.837 7.163-16 16-16h32c8.837 0 16 7.163 16 16v32c0 8.837-7.163 16-16 16h-32c-8.837 0-16-7.163-16-16v-32z" stroke="#000" stroke-width="12"/><path d="M149.607 148.607a15.01 15.01 0 0 1-7.681 4.105 15 15 0 1 1 7.681-25.319" stroke="#000" stroke-width="8" stroke-linecap="round"/><path fill-rule="evenodd" clip-rule="evenodd" d="M96 28c-20.432 0-38.76 9.011-51.224 23.276L63.98 84.54C68.683 71.4 81.244 62 96 62h58.903C143.145 41.675 121.17 28 96 28zM28 96c0-12.39 3.314-24.007 9.104-34.011l29.122 50.44c4.868 8.803 13.526 15.219 23.774 17.043V120c0-.942.043-1.873.128-2.792a22.051 22.051 0 0 1-13.184-10.206l.004-.002-.215-.372A21.899 21.899 0 0 1 74 96c0-12.15 9.85-22 22-22 10.117 0 18.639 6.829 21.208 16.128.919-.085 1.85-.128 2.792-.128h9.472a33.867 33.867 0 0 0-7.548-16h38.438a67.676 67.676 0 0 1 3.459 17.03 29.938 29.938 0 0 1 12.163 6.594c.011-.54.016-1.081.016-1.624 0-44.183-35.817-80-80-80S16 51.817 16 96s35.817 80 80 80c.543 0 1.084-.005 1.624-.016a29.938 29.938 0 0 1-6.594-12.163C55.795 161.276 28 131.884 28 96z" fill="#000"/></svg>
